!! J.S. Bach; Fugue from 'Prelude & Fugue in F minor', BWV 534 for organ
!! 5 voices.
!! NOTE: There are a number of points in the fugue where the assignment
!!       of the voices is contentious, confusing, and possibly contraversial.
!!       In particular, exercise caution in examining voice crossings,
!!       the results may be largely spurious.
!! NOTE: Double-stops occur in bars 137 and 138.
!! Performed duration: 5:18, tempo: quarter-note equals MM 104.2
**kern	**kern	**kern	**kern	**kern
*M4/4	*M4/4	*M4/4	*M4/4	*M4/4
=1	=1	=1	=1	=1
1r	1r	2f	1r	1r
.	.	2g	.	.
=2	=2	=2	=2	=2
1r	1r	2a-	1r	1r
.	.	2BnT	.	.
=3	=3	=3	=3	=3
1r	1r	4c	1r	1r
.	.	4B-	.	.
.	.	4A-	.	.
.	.	4G	.	.
=4	=4	=4	=4	=4
1r	1r	4F	1r	2cc
.	.	4E-	.	.
.	.	4F	.	2ddn
.	.	4G	.	.
=5	=5	=5	=5	=5
1r	1r	4C	1r	2ee-
.	.	4c	.	.
.	.	4B-	.	2f#T
.	.	4An	.	.
=6	=6	=6	=6	=6
1r	1r	2B-	1r	4g
.	.	.	.	4fn
.	.	2BnT	.	4e-
.	.	.	.	4d
=7	=7	=7	=7	=7
1r	1r	4c	1r	2e-
.	.	4B-	.	.
.	.	4A-	.	2enT
.	.	4G	.	.
=8	=8	=8	=8	=8
2F	1r	2A-	1r	4f
.	.	.	.	2cc
2G	.	2B-	.	.
.	.	.	.	[4b-
=9	=9	=9	=9	=9
2A-	1r	2c	1r	4b-]
.	.	.	.	4a-
2BBn	.	2dn	.	4g
.	.	.	.	4f
=10	=10	=10	=10	=10
4C	1r	4c	1r	4en
4BB-	.	8dn	.	4g
.	.	8en	.	.
4AA-	.	4f	.	4c
4GG	.	4e	.	[4b-
=11	=11	=11	=11	=11
4FF	1r	4f	1r	4b-]
4GG	.	8en	.	8-
.	.	8f	.	8g
4AA-	.	4c	.	4f
4FF	.	[4f	.	4a-
=12	=12	=12	=12	=12
2C	2c	4f]	1r	2g
.	.	4en	.	.
2A-	2dn	2f	.	2bn
=13	=13	=13	=13	=13
2G	2e-	2g	1r	4cc
.	.	.	.	4bn
2An	2F#T	4r	.	[2cc
.	.	[4e-	.	.
=14	=14	=14	=14	=14
2G	4G	4e-]	1r	4cc]
.	4Fn	4dn	.	4bn
2GG	4E-	4e-	.	4cc
.	4Dn	4f	.	4ddn
=15	=15	=15	=15	=15
2.C	4C	4g	1r	4ee-
.	4G	4f	.	4ddn
.	[2c	4e-	.	4cc
4BB-	.	4en	.	4g
=16	=16	=16	=16	=16
4AA-	1c_	2f	1r	2cc
4GG	.	.	.	.
4FF	.	2g	.	2b-
4EEn	.	.	.	.
=17	=17	=17	=17	=17
[1FF	4c]	2f	2ff	2a-
.	4B-	.	.	.
.	4A-	2en	2gg	2b-
.	4G	.	.	.
=18	=18	=18	=18	=18
4FF]	4F	2f	2aa-	2cc
4GG	4En	.	.	.
2AA-	2F	4r	2bn	2ddn
.	.	8g	.	.
.	.	8g	.	.
=19	=19	=19	=19	=19
4AAn	4E-	4f	4cc	2.ff
4BB-	2Dn	4b-	4b-	.
4BBn	.	4dn	4a-	.
[4C	[4C	4en	4g	4een
=20	=20	=20	=20	=20
4C]	4C]	4An	4f	2.ff
2D-	8BB-	2B-	8g	.
.	8C	.	8an	.
.	4D-	.	4b-	.
4BB-	4B-	4d-	4a-	4ff
=21	=21	=21	=21	=21
1C	4B-	4c	4g	4een
.	4G	4B-	4en	4gg
.	4A-	4A-	4f	4cc
.	4G	[4c	4en	[4b-
=22	=22	=22	=22	=22
2FF	4F	2c]	2f	2b-]
.	4G	.	.	.
2F	4A-	2c	[2f	2a-
.	4F	.	.	.
=23	=23	=23	=23	=23
2.G	4Dn	2Bn	2f]	1g
.	8E-	.	.	.
.	8F	.	.	.
.	[2G	4c	4e-	.
4F	.	4B	4dn	.
=24	=24	=24	=24	=24
4E-	4G]	2c	2e-	2cc
4Dn	4F	.	.	.
4C	4E-	2f	[2g	[2ddn
4BBn	4Dn	.	.	.
=25	=25	=25	=25	=25
1C	4C	2.e-	2.g]	4dd]
.	4G	.	.	8cc
.	.	.	.	8bn
.	4c	.	.	2cc
.	4F#	4e-	4an	.
=26	=26	=26	=26	=26
2G	4G	4dn	1g	2cc
.	8F	4e-	.	.
.	8E-	.	.	.
2GG	2Dn	2f	.	2bn
=27	=27	=27	=27	=27
2C	2C	2e-	2g	4cc
.	.	.	.	[4gg
2Dn	2r	2r	4Bn	8gg]
.	.	.	.	8ff
.	.	.	4f	8ee-
.	.	.	.	8ddn
=28	=28	=28	=28	=28
2E-	1r	1r	4g	[2cc
.	.	.	8f#	.
.	.	.	8g	.
2FF#	.	.	2an	8cc]
.	.	.	.	8ee-
.	.	.	.	8ddn
.	.	.	.	8cc
=29	=29	=29	=29	=29
4GG	1r	1r	[2g	8bn
.	.	.	.	8ddn
4FFn	.	.	.	8ee-
.	.	.	.	8ff
4EE-	.	.	8g]	4gg
.	.	.	8g	.
4DDn	.	.	8an	4ff
.	.	.	8bn	.
=30	=30	=30	=30	=30
4CC	1r	1r	[2cc	8ee-
.	.	.	.	8gg
4BB-	.	.	.	8ee-
.	.	.	.	8ddn
4AA-	.	.	8cc]	4cc
.	.	.	8dd-	.
4GG	.	.	8cc	4een
.	.	.	8b-	.
=31	=31	=31	=31	=31
4FF	1r	2f	4a-	2.ff
4D-	.	.	8b-	.
.	.	.	8cc	.
4BB-	.	2g	4dd-	.
4C	.	.	[4cc	4een
=32	=32	=32	=32	=32
4F	1r	2C	4cc]	2.ff
4E-	.	.	8bn	.
.	.	.	8cc	.
4Dn	.	2Bn	2f	.
4G	.	.	.	8een
.	.	.	.	8ddn
=33	=33	=33	=33	=33
2.C	1r	4c	2g	4een
.	.	4B-	.	4gg
.	.	4A-	4r	[2cc
4BB-	.	4G	4en	.
=34	=34	=34	=34	=34
2AA-	1r	4F	8f	1cc_
.	.	.	8g	.
.	.	4C	8a-	.
.	.	.	8g	.
2AAn	.	[2F	8f	.
.	.	.	8e-	.
.	.	.	8d-	.
.	.	.	8c	.
=35	=35	=35	=35	=35
4BB-	1r	4F]	2d	8cc]
.	.	.	.	8b-
4AA-	.	4F	.	8cc
.	.	.	.	[8dd-
4GG	.	8B-	4e-	4dd-]
.	.	8A-	.	.
4EE-	.	8G	[4b-	4dd-
.	.	8F	.	.
=36	=36	=36	=36	=36
4AA-	1r	8E-	4b-]	2.cc
.	.	8G	.	.
4E-	.	8A-	8a-	.
.	.	8B-	8g	.
[2A-	.	2c	4a-	.
.	.	.	4a-	4cc
=37	=37	=37	=37	=37
2A-]	1r	8dn	1b-	2ff
.	.	8e-	.	.
.	.	8c	.	.
.	.	8d	.	.
2G	.	8en	.	2gg
.	.	8f	.	.
.	.	8d	.	.
.	.	8e	.	.
=38	=38	=38	=38	=38
8F	2c	1f	1a-	2aa-
8G	.	.	.	.
8E-	.	.	.	.
8F	.	.	.	.
8Dn	2dn	.	.	2bn
8G	.	.	.	.
8F	.	.	.	.
8G	.	.	.	.
=39	=39	=39	=39	=39
8C	2e-	2e-	2g	[2cc
8Dn	.	.	.	.
8BB-	.	.	.	.
8C	.	.	.	.
8AAn	2F#	4f#	2an	8cc]
8D	.	.	.	8ddn
8C	.	4dn	.	8bn
8D	.	.	.	8cc
=40	=40	=40	=40	=40
4GG	4G	4d	4g	4bn
4AA-	4Fn	4c	4r	2cc
4FF	4E-	2f	4a-	.
4GG	4Dn	.	4g	4b-
=41	=41	=41	=41	=41
1CC	[2C	2e-	2g	4cc
.	.	.	.	4b-
.	8C]	2c	2en	4a-
.	8BB-	.	.	.
.	8AA-	.	.	4g
.	8GG	.	.	.
=42	=42	=42	=42	=42
2FF	4F	2c	2f	2a-
.	2F	.	.	.
2r	.	2r	2g	2r
.	4En	.	.	.
=43	=43	=43	=43	=43
1r	8F	1r	2a-	1r
.	8G	.	.	.
.	2A-	.	.	.
.	.	.	2Bn	.
.	8G	.	.	.
.	8F	.	.	.
=44	=44	=44	=44	=44
1r	8En	1r	4c	1r
.	8F	.	.	.
.	8G	.	4B-	.
.	8C	.	.	.
.	8Dn	.	4A-	.
.	8C	.	.	.
.	8E	.	4G	.
.	8C	.	.	.
=45	=45	=45	=45	=45
1r	4F	1r	8A-	1r
.	.	.	8B-	.
.	4E-	.	8c	.
.	.	.	8F	.
.	4D-	.	8G	.
.	.	.	8F	.
.	4C	.	8An	.
.	.	.	8F	.
=46	=46	=46	=46	=46
1r	8BB-	1r	4B-	1r
.	8A-	.	.	.
.	8G	.	4f	.
.	8F	.	.	.
.	8G	.	4e-	.
.	8B-	.	.	.
.	8E-	.	4d-	.
.	8G	.	.	.
=47	=47	=47	=47	=47
1r	4A-	1r	4c	2a-
.	4F	.	2a-	.
.	4D-	.	.	2b-
.	4E-	.	4g	.
=48	=48	=48	=48	=48
1r	4A-	1r	8a-	2cc
.	.	.	8g	.
.	4An	.	8f	.
.	.	.	8e-	.
.	4B-	.	8d	2dn
.	.	.	8c	.
.	4BB-	.	8B-	.
.	.	.	8A-	.
=49	=49	=49	=49	=49
1r	2E-	1r	4G	4e-
.	.	.	4B-	4d-
.	2E-	.	4A-	4c
.	.	.	4G	4B-
=50	=50	=50	=50	=50
1r	2AA-	1r	2A-	4c
.	.	.	.	4e-
.	8r	.	4r	[2a-
.	8A-	.	.	.
.	8G	.	4c	.
.	8A-	.	.	.
=51	=51	=51	=51	=51
1r	8F	1r	4f	4a-]
.	8A-	.	.	.
.	8B-	.	2e-	2g
.	8c	.	.	.
.	4B-	.	.	.
.	4BB-	.	4dn	4f
=52	=52	=52	=52	=52
1r	2E-	1r	2e-	4g
.	.	.	.	4b-
.	8r	.	4r	[2ee-
.	8E-	.	.	.
.	8D-	.	4g-	.
.	8E-	.	.	.
=53	=53	=53	=53	=53
1r	8C	1r	4cc	4ee-]
.	8E-	.	.	.
.	8F	.	2b-	2dd-
.	8G-	.	.	.
.	4F	.	.	.
.	4FF	.	4an	4cc
=54	=54	=54	=54	=54
1r	2BB-	1r	2b-	4dd-
.	.	.	.	4ff
.	8r	.	4r	[2bb-
.	8B-	.	.	.
.	8A-	.	4dd-	.
.	8B-	.	.	.
=55	=55	=55	=55	=55
1r	8G	1r	4gg	4bb-]
.	8B-	.	.	.
.	8c	.	2ff	2aa-
.	8d-	.	.	.
.	4c	.	.	.
.	4C	.	4een	4gg
=56	=56	=56	=56	=56
1r	4F	2c	2.ff	4aa-
.	4Dn	.	.	[2.gg
.	4Bn	2dn	.	.
.	4G	.	8ee-	.
.	.	.	8ddn	.
=57	=57	=57	=57	=57
1r	2C	2e-	[2cc	8gg]
.	.	.	.	8gg
.	.	.	.	8ff#
.	.	.	.	8gg
.	2AAn	2F#	8cc]	2aan
.	.	.	8ddn	.
.	.	.	8bn	.
.	.	.	8cc	.
=58	=58	=58	=58	=58
1r	1GG	4G	8bn	4ddn
.	.	.	8cc	.
.	.	4Fn	8an	4gg
.	.	.	8b	.
.	.	4E-	4cc	4aan
.	.	4Dn	4ddn	4bbn
=59	=59	=59	=59	=59
1r	2C	4C	8ee-	2ccc
.	.	.	8ddn	.
.	.	4c	8ee-	.
.	.	.	8cc	.
.	4Dn	[2B-	8r	4aa-
.	.	.	4ff	.
.	4E-	.	.	4gg
.	.	.	8ee-	.
=60	=60	=60	=60	=60
1r	4BB-	2B-]	8ddn	2ff
.	.	.	8cc	.
.	4A-	.	8dd	.
.	.	.	8b-	.
.	4G	4e-	8r	4bb-
.	.	.	4gg	.
.	4B-	4dn	.	4aa-
.	.	.	[8ff	.
=61	=61	=61	=61	=61
1r	4E-	4B-	8ff]	4gg
.	.	.	4ee-	.
.	4A-	2c	.	4aa-
.	.	.	4ee-	.
.	4Dn	.	.	4ff
.	.	.	4ddn	.
.	4G	4Bn	.	4gg
.	.	.	[8dd	.
=62	=62	=62	=62	=62
1r	4C	4B-	8dd]	4ee-
.	.	.	4cc	.
.	4F	2A-	.	4ff
.	.	.	4cc	.
.	4BB-	.	.	4ddn
.	.	.	4b-	.
.	4E-	[4G	.	4ee-
.	.	.	[8b-	.
=63	=63	=63	=63	=63
1r	4AA-	4G]	8b-]	4cc
.	.	.	4a-	.
.	4D-	2F	.	4dd-
.	.	.	4a-	.
.	4GG	.	.	4b-
.	.	.	4g	.
.	4C	4En	.	4cc
.	.	.	[8g	.
=64	=64	=64	=64	=64
2F	2FF	2F	4g]	2a-
.	.	.	2f	.
2G	2r	2r	.	2b-
.	.	.	4en	.
=65	=65	=65	=65	=65
2A-	4A-	4c	2f	2cc
.	4G	4B-	.	.
2BBn	2F	2A-	4a-	2ddn
.	.	.	4dn	.
=66	=66	=66	=66	=66
4C	2En	2G	2c	4g
4BB-	.	.	.	8a-
.	.	.	.	8b-
4AA-	4F	4A-	8r	4cc
.	.	.	4f	.
4GG	4G	4B-	.	4b-
.	.	.	8en	.
=67	=67	=67	=67	=67
2FF	2A-	2c	2f	4a-
.	.	.	.	4cc
2F	[2F	4f	[2a-	4dd-
.	.	4e-	.	4cc
=68	=68	=68	=68	=68
2G	4F]	2dn	4a-]	2b-
.	8En	.	8g	.
.	8Dn	.	8f	.
2C	2ET	2c	2g	4cc
.	.	.	.	4b-
=69	=69	=69	=69	=69
8FF	2F	2c	2f	2a-
8F	.	.	.	.
8E-	.	.	.	.
8F	.	.	.	.
8D-	4r	4r	4r	4r
8F	.	.	.	.
8BB-	4B-	4d-	4a-	4ff
8D-	.	.	.	.
=70	=70	=70	=70	=70
8EE-	2B-	2d-	2g	2ee-
8E-	.	.	.	.
8D-	.	.	.	.
8E-	.	.	.	.
8C	4r	4r	4r	4r
8E-	.	.	.	.
8AA-	4A-	4c	4g-	4ee-
8C	.	.	.	.
=71	=71	=71	=71	=71
8D-	2A-	2c	2f	2dd-
8F	.	.	.	.
8E-	.	.	.	.
8F	.	.	.	.
8G	4r	4r	4r	4r
8B-	.	.	.	.
8E-	4B-	4g	4b-	4dd-
8G	.	.	.	.
=72	=72	=72	=72	=72
4A-	4c	4e-	2a-	4.cc
4D-	8A-	4f	.	.
.	8B-	.	.	8dd-
4E-	4c	2e-	4a-	4cc
4EE-	4d-	.	4g	4b-
=73	=73	=73	=73	=73
4AA-	2c	2e-	2a-	2a-
2A-	.	.	.	.
.	2d-	2e-	2b-	2r
4G	.	.	.	.
=74	=74	=74	=74	=74
2A-	8c	2e-	2cc	1r
.	8B-	.	.	.
.	8A-	.	.	.
.	8G	.	.	.
2BB-	8F	[2B-	2dn	.
.	8G	.	.	.
.	4A-	.	.	.
=75	=75	=75	=75	=75
4E-	4G	4B-]	4e-	1r
4EE-	[2.E-	4g	4d-	.
4FF	.	4a-	4c	.
4GG	.	[4b-	4B-	.
=76	=76	=76	=76	=76
2.AA-	4E-]	4b-]	4c	1r
.	8c	8a-	4e-	.
.	8B-	8g	.	.
.	8A-	[2a-	4cc	.
.	8G	.	.	.
4BB-	4F	.	4ddn	.
=77	=77	=77	=77	=77
2E-	4E-	4a-]	2.ee-	1r
.	4BB-	8g	.	.
.	.	8f	.	.
[2EE-	4E-	2g	.	.
.	4D-	.	4b-	.
=78	=78	=78	=78	=78
1EE-_	4C	4a-	4cc	1r
.	4BB-	4g	4dd-	.
.	4C	[2a-	4ee-	.
.	4AA-	.	8dd-	.
.	.	.	8cc	.
=79	=79	=79	=79	=79
4EE-]	4E-	8a-]	4.b-	1r
.	.	8f	.	.
4BB-	4D-	4g	.	.
.	.	.	8ff	.
4C	4C	4a-	4ee-	.
4BB-	4D-	[4b-	4dd-	.
=80	=80	=80	=80	=80
2AA-	2.E-	4b-]	2.cc	1r
.	.	8a-	.	.
.	.	8g	.	.
[2A-	.	2a-	.	.
.	4c	.	4ee-	.
=81	=81	=81	=81	=81
8A-]	1B-	2f	2ddn	2ff
8B-	.	.	.	.
8A-	.	.	.	.
8B-	.	.	.	.
8G	.	2b-	2een	2gg
8A-	.	.	.	.
8G	.	.	.	.
8A-	.	.	.	.
=82	=82	=82	=82	=82
8F	2A-	2cc	1ff	2aa-
8G	.	.	.	.
8E-	.	.	.	.
8F	.	.	.	.
8Dn	2dn	2a-	.	2bn
8G	.	.	.	.
8F	.	.	.	.
8G	.	.	.	.
=83	=83	=83	=83	=83
4C	4c	2g	4een	4cc
4D-	4r	.	8ff	4b-
.	.	.	8gg	.
4C	8r	2cc	4f	4a-
.	8C	.	.	.
4BB-	8Dn	.	4en	4g
.	8En	.	.	.
=84	=84	=84	=84	=84
4AA-	4F	2cc	4c	4f
4AAn	4c	.	4e-	2ff
4BB-	8B-	2ddn	2dn	.
.	8A-	.	.	.
4BBn	4G	.	.	8gg
.	.	.	.	8ff
=85	=85	=85	=85	=85
2C	4G	2.ee-	4c	2ee-
.	4B-	.	2c	.
[2Dn	2A	.	.	2f#
.	.	8ddn	4Dn	.
.	.	8cc	.	.
=86	=86	=86	=86	=86
2D]	8F	2bn	2dn	4g
.	8G	.	.	.
.	4A-	.	.	4f
4C	4G	4cc	4e-	4e-
4BBn	4A-	[4ddn	4f	4dn
=87	=87	=87	=87	=87
2C	2G	4dd]	2e-	2e-
.	.	8cc	.	.
.	.	8bn	.	.
4r	4r	4cc	4r	4r
4C	4A-	4f	4cc	4ff
=88	=88	=88	=88	=88
2G	2G	2.g	2cc	2ee-
2GG	2F	.	2bn	2ddn
.	.	4dn	.	.
=89	=89	=89	=89	=89
2C	2E-	2e-	2g	4cc
.	.	.	.	4b-
2Dn	2F	2r	2r	2a-T
=90	=90	=90	=90	=90
2E-	1r	1r	8r	8r
.	.	.	8B-	8g
.	.	.	8An	8f#
.	.	.	8B-	8g
2FF#	.	.	8r	8r
.	.	.	8c	8an
.	.	.	8B-	8g
.	.	.	8c	8a
=91	=91	=91	=91	=91
4GG	1r	1r	8Bn	8d
.	.	.	8B	8g
4FFn	.	.	8c	8an
.	.	.	8dn	8bn
4EE-	.	.	8e-	8cc
.	.	.	8d	8b
4DDn	.	.	8e-	8cc
.	.	.	8f	8ddn
=92	=92	=92	=92	=92
2CC	1r	1r	8g	8ee-
.	.	.	8e-	8cc
.	.	.	8dn	8bn
.	.	.	8e-	8cc
4r	.	.	8f	8dd-
.	.	.	8d	8bn
4FF#	.	.	4e-	4cc
=93	=93	=93	=93	=93
8GG	1r	1r	2dn	2bn
8G	.	.	.	.
8Fn	.	.	.	.
8G	.	.	.	.
8A-	.	.	4r	4r
8G	.	.	.	.
8F	.	.	4d	4b
8G	.	.	.	.
=94	=94	=94	=94	=94
8E-	1r	1r	2e-	2cc
8G	.	.	.	.
8F	.	.	.	.
8G	.	.	.	.
8E-	.	.	4r	4r
8F	.	.	.	.
8Dn	.	.	4f	4ddn
8E-	.	.	.	.
=95	=95	=95	=95	=95
8C	1r	1r	2g	2ee-
8D-	.	.	.	.
8BB-	.	.	.	.
8C	.	.	.	.
8AA-	.	.	4r	4r
8BB-	.	.	.	.
8GG	.	.	4g	4een
8AA-	.	.	.	.
=96	=96	=96	=96	=96
2FF	2F	1r	2a-	4ff
.	.	.	.	4cc
2r	2G	.	4r	4r
.	.	.	[4b-	[4dd-
=97	=97	=97	=97	=97
1r	2A-	1r	4b-]	4dd-]
.	.	.	4a-	4cc
.	2BBn	.	4r	4r
.	.	.	[4a-	[4ff
=98	=98	=98	=98	=98
1r	4C	1r	4a-]	4ff]
.	4BB-	.	4g	4een
.	4AA-	.	4r	4r
.	4GG	.	[4b-	[4gg
=99	=99	=99	=99	=99
1r	4FF	1r	4b-]	4gg]
.	4r	.	4a-	4ff
.	4GG	.	4r	4r
.	4r	.	[4b-	8ee-
.	.	.	.	[8dd-
=100	=100	=100	=100	=100
1r	4AA-	1r	4b-]	4dd-]
.	4r	.	4a-	4cc
.	4BB-	.	4r	4r
.	4r	.	[4g	[4b-
=101	=101	=101	=101	=101
1r	4BBn	1r	4g]	4b-]
.	4r	.	2f	2a-
.	4C	.	.	.
.	4r	.	4en	4g
=102	=102	=102	=102	=102
1r	8F	2c	2f	4a-
.	8G	.	.	.
.	8E-	.	.	4an
.	8F	.	.	.
.	8Dn	2dn	4f	4b-
.	8G	.	.	.
.	8F	.	4g	4bn
.	8G	.	.	.
=103	=103	=103	=103	=103
1r	8C	2e-	2g	2.cc
.	8Dn	.	.	.
.	8BB-	.	.	.
.	8C	.	.	.
.	4AAn	2F#	2an	.
.	4D	.	.	[4ddn
=104	=104	=104	=104	=104
1r	4GG	4G	4bn	4dd]
.	4BBn	4Fn	4g	2gg
.	8C	4E-	8an	.
.	8BB-	.	8g	.
.	8AAn	4Dn	8a	[4ff
.	8GG	.	8bn	.
=105	=105	=105	=105	=105
1r	4C	8C	[2cc	4ff]
.	.	8G	.	.
.	4r	8An	.	8ee-
.	.	8Bn	.	8ddn
.	4r	[2c	8cc]	4ee-
.	.	.	8b-	.
.	4C	.	8a-	4een
.	.	.	8g	.
=106	=106	=106	=106	=106
1r	2.D-	4c]	4f	[1ff
.	.	8B-	8g	.
.	.	8c	8an	.
.	.	4F	4b-	.
.	4Dn	4c-	4a-	.
=107	=107	=107	=107	=107
1r	2.E-	[1B-	2.g-	4ff]
.	.	.	.	8ee-
.	.	.	.	8ddn
.	.	.	.	4ee-
.	4En	.	4gn	4dd-
=108	=108	=108	=108	=108
1r	2.F	4B-]	2.f	4cc
.	.	8A-	.	8ddn
.	.	8G	.	8een
.	.	2A-	.	2ff
.	4BBn	.	4ddn	.
=109	=109	=109	=109	=109
1r	1C	4G	4cc	4een
.	.	4d-	4b-	8ff
.	.	.	.	8gg
.	.	4dn	4a-	4cc
.	.	4en	4g	4b-
=110	=110	=110	=110	=110
1r	4F	2f	2f	4a-
.	4d-	.	.	2ff
.	4B-	2g	2r	.
.	4c	.	.	4een
=111	=111	=111	=111	=111
1r	4F	2a-	1r	8ff
.	.	.	.	8een
.	4A-	.	.	2ff
.	4Dn	2Bn	.	.
.	4G	.	.	8ee-
.	.	.	.	8ddn
=112	=112	=112	=112	=112
1r	2C	4c	1r	4ee-
.	.	4B-	.	4een
.	4D-	4A-	.	4.ffT
.	4BBn	[4G	.	.
.	.	.	.	16ee
.	.	.	.	16ff
=113	=113	=113	=113	=113
1r	4C	2G]	1r	4een
.	8Dn	.	.	[4cc
.	8En	.	.	.
.	4F	[2F	.	8cc]
.	.	.	.	8aa-
.	4AA-	.	.	8ff
.	.	.	.	8cc
=114	=114	=114	=114	=114
1r	4BB-	2F]	1r	4ddn
.	8C	.	.	[4b-
.	8Dn	.	.	.
.	4E-	[2E-	.	8b-]
.	.	.	.	8gg
.	4GG	.	.	8ee-
.	.	.	.	8b-
=115	=115	=115	=115	=115
1r	4AA-	2E-]	1r	4cc
.	8BB-	.	.	[4a-
.	8C	.	.	.
.	4D-	2D-	.	8a-]
.	.	.	.	8ff
.	4FF	.	.	8dd-
.	.	.	.	8a-
=116	=116	=116	=116	=116
1r	4GG	2D-	1r	4b-
.	8AA-	.	.	[4g
.	8BB-	.	.	.
.	4C	[2C	.	8g]
.	.	.	.	8een
.	4EEn	.	.	8cc
.	.	.	.	8g
=117	=117	=117	=117	=117
1r	4FF	2C]	1r	8a-
.	.	.	.	8cc
.	4AA-	.	.	8f
.	.	.	.	[8ff
.	4BB-	4D-	.	8ff]
.	.	.	.	8dd-
.	4D-	4F	.	8b-
.	.	.	.	8dd-
=118	=118	=118	=118	=118
1r	4C	4En	1r	8g
.	.	.	.	8b-
.	4B-	4d-	.	8en
.	.	.	.	[8een
.	4A-	4c	.	8ee]
.	.	.	.	8cc
.	4G	4B-	.	8g
.	.	.	.	8b-
=119	=119	=119	=119	=119
1r	4A-	2c	1r	8a-
.	.	.	.	8ff
.	4F	.	.	8gg
.	.	.	.	8aa-
.	[2G	2f	.	8bn
.	.	.	.	8ddn
.	.	.	.	8g
.	.	.	.	8b
=120	=120	=120	=120	=120
2C	8G]	4e-	1r	4cc
.	8c	.	.	.
.	8dn	4g	.	2ee-
.	8e-	.	.	.
2Dn	8Bn	[2f	.	.
.	8d	.	.	.
.	8G	.	.	[4ddn
.	8B	.	.	.
=121	=121	=121	=121	=121
2E-	8c	4f]	1r	4dd]
.	8B-	.	.	.
.	8An	4e-	.	2cc
.	8G	.	.	.
2FF#	8A	4dn	.	.
.	8G	.	.	.
.	8F#	[4an	.	8ddn
.	8En	.	.	8cc
=122	=122	=122	=122	=122
4GG	4Dn	4a]	1r	2bn
4FFn	8E-	2g	.	.
.	8Fn	.	.	.
4EE-	4G	.	.	4cc
4DDn	8An	4f	.	4ddn
.	8Bn	.	.	.
=123	=123	=123	=123	=123
[1CC	4c	2g	2cc	2ee-
.	4B-	.	.	.
.	4A-	2bn	2ddn	2ff
.	8G	.	.	.
.	8F	.	.	.
=124	=124	=124	=124	=124
4CC]	4E-	4cc	2ee-	2gg
4DDn	4F	4bn	.	.
4E-	2E-	2cc	2f#	2aan
4CC	.	.	.	.
=125	=125	=125	=125	=125
2.GG	4Dn	2bn	4g	2ddn
.	8E-	.	4fn	.
.	8F	.	.	.
.	[2G	2g	4e-	4cc
4FF	.	.	4dn	4bn
=126	=126	=126	=126	=126
2EE-	8G]	2g	2c	2cc
.	8A-	.	.	.
.	8G	.	.	.
.	8F	.	.	.
4r	8G	4r	4r	4r
.	8C	.	.	.
4EEn	4c	4g	4b-	[4gg
=127	=127	=127	=127	=127
2FF	2c	4a-	8a-	4gg]
.	.	.	8b-	.
.	.	4r	8a-	4ff
.	.	.	8g	.
4r	4r	4r	8a-	4r
.	.	.	8f	.
4AAn	4e-	4f	4cc	4ff
=128	=128	=128	=128	=128
2BB-	8d-	2f	2b-	2ff
.	8e-	.	.	.
.	8d-	.	.	.
.	8c	.	.	.
4r	8d-	4r	4r	4r
.	8B-	.	.	.
4BBn	4g	4f	4g	[4dd
=129	=129	=129	=129	=129
2C	2c	8e-	2g	4dd]
.	.	8f	.	.
.	.	8e-	.	4cc
.	.	8dn	.	.
4r	4r	8e-	4r	4r
.	.	8c	.	.
4BB-	4c	4g	4cc	4een
=130	=130	=130	=130	=130
2AA-	2c	2f	2cc	8ff
.	.	.	.	8gg
.	.	.	.	8ff
.	.	.	.	8een
4r	4r	4r	4r	8ff
.	.	.	.	8cc
4En	4g	4b-	4cc	4gg
=131	=131	=131	=131	=131
2FF	2f	2a-	2cc	8aa-
.	.	.	.	8bb-
.	.	.	.	8aa-
.	.	.	.	8gg
4r	4r	4r	4r	8aa-
.	.	.	.	8ff
4GG	4en	4g	4b-	4ccc
=132	=132	=132	=132	=132
2AA-	2f	2f	2cc	8ff
.	.	.	.	8gg
.	.	.	.	8ff
.	.	.	.	8een
4r	4r	4r	4r	8ff
.	.	.	.	8cc
4EEn	4g	4b-	4cc	4gg
=133	=133	=133	=133	=133
2FF	2f	2a-	2cc	8aa-
.	.	.	.	8bb-
.	.	.	.	8aa-
.	.	.	.	8gg
4r	4r	4r	4r	8aa-
.	.	.	.	8ccc
4GG	4g	4b-	4cc	4een
=134	=134	=134	=134	=134
2AA-	2f	2a-	2cc	8ff
.	.	.	.	8gg
.	.	.	.	8ff
.	.	.	.	8een
2r	2r	2r	2r	8ff
.	.	.	.	8dd-
.	.	.	.	8cc
.	.	.	.	8bn
=135	=135	=135	=135	=135
1r	1r	1r	1r	8cc
.	.	.	.	8dd-
.	.	.	.	8cc
.	.	.	.	8bn
.	.	.	.	8cc
.	.	.	.	8g
.	.	.	.	8f
.	.	.	.	8en
=136	=136	=136	=136	=136
2r	2r	2r	2r	2f
4r	4r	4r	4r	4r
4BBn	4dn	4a-	4ddn	4ff
=137	=137	=137	=137	=137
2C	4G	2g	2cc	2ff
.	8A-	.	.	.
.	8B-	.	.	.
2CC	2c	2g	2b- 2cc	2een
=138	=138	=138	=138	=138
1FF;	1c;	1f	1a-; 1cc;	1ff;
==	==	==	==	==
*-	*-	*-	*-	*-
